X:287
T: Der bon vivant (45a), S. 145
N: T0176
O: Luxemburg
S: Singendes Volk, Esch-Alzette 1937 posth.]
N: Drinklingen, fff Nelly Gieres;
N: aufgeschrieben in Esch_Alz., 1.3.1930
R: Liebeslieder]
M: 2/4
L: 1/16
K: G
D2 | G2G2B2G2 | A2A2c2
A2 | G2GGBBB2 | A4z2
d2 | d2d2f2e2 | d2B2G2
B2 | A2AAddcc | B4z2

@@@ Tune index: 8341
